assets/card-1.svg

<svg width="183" height="122" viewBox="0 0 183 122" fill="none" xmlns="http://www.w3.org/2000/svg">
<path d="M182.848 61.2577C182.842 72.3503 179.707 83.2273 173.786 92.6966C167.866 102.166 159.389 109.862 149.284 114.942C148.692 115.244 148.091 115.533 147.486 115.812C147.214 115.943 146.946 116.064 146.67 116.185C144.943 116.958 143.172 117.651 141.356 118.266C139.924 118.754 138.455 119.197 136.972 119.578C122.959 123.22 108.083 121.957 94.9259 116.008C94.3869 115.761 93.8478 115.51 93.3183 115.249C83.4676 110.44 75.1112 103.152 69.1126 94.1377C63.1139 85.123 59.6907 74.7088 59.1964 63.9711C58.7021 53.2333 61.1547 42.5615 66.3009 33.0583C71.4471 23.5551 79.1002 15.5651 88.4694 9.91398C97.8386 4.26286 108.584 1.15554 119.596 0.913069C130.607 0.670602 141.485 3.30179 151.106 8.53476C160.727 13.7677 168.742 21.4127 174.322 30.6797C179.902 39.9468 182.846 50.4998 182.848 61.2483V61.2577Z" fill="url(#paint0_linear)"/>
<path d="M96.7432 98.5181L89.9121 88.1044C89.9121 88.1044 108.836 66.7555 110.73 65.4939C110.73 65.4939 101.184 81.1215 96.7432 98.5181Z" fill="url(#paint1_linear)"/>
<path d="M89.9122 88.1044L77.0322 99.2769L53.338 88.1044L35.2107 89.0727C35.2107 89.0727 46.5021 92.7968 49.6791 92.6432L52.8609 92.4896C52.8609 92.4896 72.3192 110.799 76.7937 112.195C81.2683 113.592 95.9657 102.643 95.9657 102.643L96.8196 98.5507L89.9122 88.1044Z" fill="url(#paint2_linear)"/>
<path d="M125.451 62.9661C123.661 63.8118 121.737 64.3534 119.76 64.5675C117.475 64.9027 114.002 63.6644 114.002 63.6644C116.626 61.6487 116.016 56.8957 116.016 56.8957L116.073 56.8678C118.873 56.6583 121.215 55.1081 122.851 53.6091C122.26 57.6778 125.451 62.9661 125.451 62.9661Z" fill="url(#paint3_linear)"/>
<path d="M125.451 47.8273V50.6205C124.706 51.7056 123.835 52.7037 122.856 53.5952C121.22 55.0988 118.878 56.649 116.078 56.8538C114.806 56.9487 113.528 56.7658 112.338 56.3185C104.705 53.5254 110.072 38.745 110.072 38.745C112.495 32.7304 123.467 35.6399 123.467 35.6399C124.936 37.3484 125.218 42.12 125.16 42.5856C124.916 43.2396 124.596 43.8643 124.206 44.4476C124.206 44.4476 126.291 42.5297 127.006 43.8052C127.722 45.0808 125.451 47.8273 125.451 47.8273Z" fill="url(#paint4_linear)"/>
<path d="M125.451 50.6298V47.8366C125.451 47.8366 127.717 45.1133 127.002 43.8285C126.286 42.5436 124.202 44.4709 124.202 44.4709C124.591 43.8876 124.911 43.2628 125.156 42.6088C125.213 42.1433 124.974 37.6417 123.462 35.6632C123.462 35.6632 112.49 32.7537 110.067 38.7682C110.067 38.7682 106.928 37.9908 104.223 34.3458C99.8012 28.3824 105.082 27.6516 110.315 28.8014C116.664 30.198 123.028 25.6172 130.303 30.2725C137.578 34.9277 131.056 45.509 125.451 50.6298Z" fill="#262F72"/>
<g filter="url(#filter0_d)">
<path d="M75.5153 24.6396H13.6202C12.1238 24.6396 10.9106 25.8235 10.9106 27.2838V82.979C10.9106 84.4394 12.1238 85.6232 13.6202 85.6232H75.5153C77.0118 85.6232 78.2249 84.4394 78.2249 82.979V27.2838C78.2249 25.8235 77.0118 24.6396 75.5153 24.6396Z" fill="white"/>
</g>
<path d="M21.2193 35.6911C21.0475 35.8809 20.8268 36.0223 20.5801 36.1008C20.2857 36.2005 19.9758 36.2493 19.6642 36.2451C19.3408 36.2523 19.0214 36.1752 18.7387 36.0216C18.471 35.8699 18.2565 35.6427 18.1234 35.3699C17.9718 35.0556 17.8951 34.7118 17.8992 34.3644V34.0944C17.8905 33.741 17.9605 33.39 18.1043 33.0656C18.2279 32.7904 18.4342 32.5583 18.6958 32.3999C19.0124 32.2326 19.3703 32.154 19.7298 32.1729C20.0893 32.1918 20.4364 32.3074 20.7327 32.5069C21.0173 32.7609 21.1885 33.1135 21.2098 33.4892H20.3941C20.3756 33.2994 20.2875 33.1225 20.146 32.9911C19.996 32.8789 19.8099 32.8228 19.6212 32.8328C19.4941 32.8259 19.3672 32.8509 19.2528 32.9055C19.1384 32.9601 19.0402 33.0425 18.9677 33.1447C18.8003 33.4266 18.7223 33.7506 18.7435 34.0757V34.3271C18.7228 34.6547 18.8079 34.9803 18.9868 35.2582C19.0693 35.3644 19.1773 35.4492 19.3012 35.5052C19.4251 35.5612 19.5612 35.5867 19.6976 35.5794C19.9391 35.6 20.1796 35.5301 20.3702 35.3839V34.6995H19.6069V34.099H21.2098L21.2193 35.6911Z" fill="#64B5F6"/>
<path d="M70.268 32.1671H26.4095C25.8747 32.1671 25.4412 32.5902 25.4412 33.1121V36.5477C25.4412 37.0696 25.8747 37.4927 26.4095 37.4927H70.268C70.8029 37.4927 71.2364 37.0696 71.2364 36.5477V33.1121C71.2364 32.5902 70.8029 32.1671 70.268 32.1671Z" fill="#E7EEF2"/>
<path d="M71.2364 40.5H25.4412V41.431H71.2364V40.5Z" fill="#BBDEFB"/>
<path d="M71.2364 42.5948H25.4412V43.5259H71.2364V42.5948Z" fill="#E7E8E9"/>
<path d="M71.2364 44.6897H25.4412V45.6208H71.2364V44.6897Z" fill="#E7E8E9"/>
<path d="M71.2364 46.7845H25.4412V47.7156H71.2364V46.7845Z" fill="#E7E8E9"/>
<path d="M71.2364 50.7042H25.4412V51.6353H71.2364V50.7042Z" fill="#BBDEFB"/>
<path d="M71.2364 52.7991H25.4412V53.7301H71.2364V52.7991Z" fill="#E7E8E9"/>
<path d="M71.2364 54.894H25.4412V55.8251H71.2364V54.894Z" fill="#E7E8E9"/>
<path d="M71.2364 56.9889H25.4412V57.9199H71.2364V56.9889Z" fill="#E7E8E9"/>
<path d="M71.2364 60.7921H25.4412V61.7232H71.2364V60.7921Z" fill="#BBDEFB"/>
<path d="M71.2364 62.887H25.4412V63.818H71.2364V62.887Z" fill="#E7E8E9"/>
<path d="M71.2364 64.9819H25.4412V65.913H71.2364V64.9819Z" fill="#E7E8E9"/>
<path d="M71.2364 67.0767H25.4412V68.0077H71.2364V67.0767Z" fill="#E7E8E9"/>
<path d="M71.2364 70.88H25.4412V71.8111H71.2364V70.88Z" fill="#BBDEFB"/>
<path d="M71.2364 72.9749H25.4412V73.9059H71.2364V72.9749Z" fill="#E7E8E9"/>
<path d="M71.2364 75.0697H25.4412V76.0007H71.2364V75.0697Z" fill="#E7E8E9"/>
<path d="M71.2364 77.1646H25.4412V78.0956H71.2364V77.1646Z" fill="#E7E8E9"/>
<path d="M141.952 85.4556C145.215 94.9337 147.633 105.906 149.284 114.942C148.692 115.244 148.091 115.533 147.486 115.812C147.214 115.943 146.947 116.064 146.67 116.185C144.943 116.958 143.172 117.651 141.356 118.266C139.925 118.755 138.455 119.197 136.972 119.578C122.96 123.22 108.083 121.957 94.926 116.008C94.3869 115.761 93.8479 115.51 93.3184 115.249C94.2724 110.468 95.4078 104.849 96.7387 98.5229C97.2221 96.2294 97.7293 93.8428 98.2604 91.3631C100.994 78.659 104.915 71.7413 108.154 67.9938L108.188 67.9566C108.803 67.2442 109.469 66.5752 110.182 65.9548C110.201 65.9323 110.224 65.912 110.248 65.8943C110.41 65.7547 110.573 65.6243 110.725 65.4986C112.676 63.9484 114.003 63.6645 114.003 63.6645L114.122 63.7064H114.189C115.225 64.1051 116.311 64.3666 117.418 64.4838H117.604H117.633C118.34 64.5498 119.051 64.5607 119.76 64.5164H119.803C121.772 64.3939 123.69 63.8538 125.423 62.9336C127.455 63.5895 129.369 64.5524 131.095 65.7873C136.027 69.3206 145.964 82.2761 145.964 82.2761L141.952 85.4556Z" fill="url(#paint5_linear)"/>
<path d="M160.122 103.145C160.093 104.44 158.886 107.065 157.121 110.249C154.631 112.003 152.01 113.571 149.279 114.942C148.687 115.244 148.086 115.533 147.481 115.812C147.209 115.943 146.941 116.064 146.665 116.185C144.938 116.958 143.167 117.651 141.351 118.266L145.959 103.932L134.033 91.7122L141.947 85.4556L145.959 82.2854C145.959 82.2854 160.246 98.1411 160.122 103.145Z" fill="url(#paint6_linear)"/>
<defs>
<filter id="filter0_d" x="0.910645" y="18.6396" width="87.3143" height="80.9835" filterUnits="userSpaceOnUse" color-interpolation-filters="sRGB">
<feFlood flood-opacity="0" result="BackgroundImageFix"/>
<feColorMatrix in="SourceAlpha" type="matrix" values="0 0 0 0 0 0 0 0 0 0 0 0 0 0 0 0 0 0 127 0"/>
<feOffset dy="4"/>
<feGaussianBlur stdDeviation="5"/>
<feColorMatrix type="matrix" values="0 0 0 0 0 0 0 0 0 0 0 0 0 0 0 0 0 0 0.15 0"/>
<feBlend mode="normal" in2="BackgroundImageFix" result="effect1_dropShadow"/>
<feBlend mode="normal" in="SourceGraphic" in2="effect1_dropShadow" result="shape"/>
</filter>
<linearGradient id="paint0_linear" x1="121.245" y1="7.45283" x2="119.23" y2="126.433" gradientUnits="userSpaceOnUse">
<stop stop-color="white" stop-opacity="0"/>
<stop offset="1" stop-color="#64B5F6" stop-opacity="0.6"/>
</linearGradient>
<linearGradient id="paint1_linear" x1="101.824" y1="63.278" x2="98.4146" y2="95.5333" gradientUnits="userSpaceOnUse">
<stop stop-color="#42A5F5"/>
<stop offset="1" stop-color="#1565C0"/>
</linearGradient>
<linearGradient id="paint2_linear" x1="60.5412" y1="97.2193" x2="100.101" y2="102.592" gradientUnits="userSpaceOnUse">
<stop stop-color="#FFE082"/>
<stop offset="1" stop-color="#FFA726"/>
</linearGradient>
<linearGradient id="paint3_linear" x1="8898.78" y1="2327.97" x2="8901.43" y2="2118.66" gradientUnits="userSpaceOnUse">
<stop stop-color="#FFE082"/>
<stop offset="1" stop-color="#FFA726"/>
</linearGradient>
<linearGradient id="paint4_linear" x1="14160.6" y1="3728.4" x2="14909.9" y2="3728.4" gradientUnits="userSpaceOnUse">
<stop stop-color="#FFE082"/>
<stop offset="1" stop-color="#FFA726"/>
</linearGradient>
<linearGradient id="paint5_linear" x1="40576.6" y1="13813.8" x2="45975.7" y2="19174.5" gradientUnits="userSpaceOnUse">
<stop stop-color="#42A5F5"/>
<stop offset="1" stop-color="#1565C0"/>
</linearGradient>
<linearGradient id="paint6_linear" x1="21739.8" y1="11218.5" x2="21382.1" y2="8911.55" gradientUnits="userSpaceOnUse">
<stop stop-color="#FFE082"/>
<stop offset="1" stop-color="#FFA726"/>
</linearGradient>
</defs>
</svg>

<svg width="242" height="122" fill="none" xmlns="http://www.w3.org/2000/svg">
  <path d="M182.848 61.258c-.006 11.092-3.141 21.97-9.062 31.439-5.92 9.469-14.397 17.165-24.502 22.245-.592.302-1.193.591-1.798.87a60.49 60.49 0 01-6.13 2.454 59.616 59.616 0 01-4.384 1.312c-14.013 3.642-28.889 2.379-42.046-3.57a63.026 63.026 0 01-1.608-.759c-9.85-4.809-18.207-12.097-24.205-21.111-6-9.015-9.422-19.43-9.917-30.167-.494-10.738 1.959-21.41 7.105-30.913 5.146-9.503 12.8-17.493 22.168-23.144 9.37-5.651 20.115-8.758 31.127-9 11.011-.243 21.889 2.388 31.51 7.62 9.621 5.234 17.636 12.879 23.216 22.146 5.58 9.267 8.524 19.82 8.526 30.568v.01z" fill="url(#paint0_linear)" />
  <path d="M96.743 98.518l-6.83-10.414s18.923-21.349 20.817-22.61c0 0-9.546 15.627-13.987 33.024z" fill="url(#paint1_linear)" />
  <path d="M89.912 88.104l-12.88 11.173-23.694-11.173-18.127.969s11.291 3.724 14.468 3.57l3.182-.153s19.458 18.309 23.933 19.705c4.474 1.397 19.172-9.552 19.172-9.552l.854-4.092-6.908-10.447z" fill="url(#paint2_linear)" />
  <path d="M125.451 62.966a17.812 17.812 0 01-5.691 1.601c-2.285.336-5.758-.903-5.758-.903 2.624-2.015 2.014-6.768 2.014-6.768l.057-.028c2.8-.21 5.142-1.76 6.778-3.259-.591 4.069 2.6 9.357 2.6 9.357z" fill="url(#paint3_linear)" />
  <path d="M125.451 47.827v2.794a17.166 17.166 0 01-2.595 2.974c-1.636 1.504-3.978 3.054-6.778 3.259a8.78 8.78 0 01-3.74-.535c-7.633-2.794-2.266-17.574-2.266-17.574 2.423-6.015 13.395-3.105 13.395-3.105 1.469 1.708 1.751 6.48 1.693 6.946a9.027 9.027 0 01-.954 1.862s2.085-1.918 2.8-.643c.716 1.276-1.555 4.022-1.555 4.022z" fill="url(#paint4_linear)" />
  <path d="M125.451 50.63v-2.793s2.266-2.724 1.551-4.009c-.716-1.284-2.8.643-2.8.643a9.127 9.127 0 00.954-1.862c.057-.466-.182-4.967-1.694-6.946 0 0-10.972-2.91-13.395 3.105 0 0-3.139-.777-5.844-4.422-4.422-5.964.859-6.694 6.092-5.545 6.349 1.397 12.713-3.184 19.988 1.472 7.275 4.655.753 15.236-4.852 20.357z" fill="#262F72" />
  <g filter="url(#filter0_d)">
    <path d="M75.515 24.64H13.62c-1.496 0-2.71 1.183-2.71 2.644v55.695c0 1.46 1.214 2.644 2.71 2.644h61.895c1.497 0 2.71-1.184 2.71-2.644V27.284c0-1.46-1.213-2.644-2.71-2.644z" fill="#fff" />
  </g>
  <path d="M21.22 35.691c-.172.19-.393.331-.64.41a2.74 2.74 0 01-.916.144 1.853 1.853 0 01-.925-.223 1.513 1.513 0 01-.616-.652 2.252 2.252 0 01-.224-1.006v-.27a2.392 2.392 0 01.205-1.028c.124-.276.33-.508.592-.666a1.99 1.99 0 012.037.107c.284.254.456.607.477.982h-.816a.784.784 0 00-.248-.498.805.805 0 00-.525-.158.76.76 0 00-.653.312 1.616 1.616 0 00-.224.93v.252c-.021.328.064.653.243.931a.852.852 0 00.71.321.97.97 0 00.673-.195V34.7h-.763v-.601h1.603l.01 1.592z" fill="#64B5F6" />
  <path d="M70.268 32.167H26.41a.957.957 0 00-.969.945v3.436c0 .522.434.945.969.945h43.858a.957.957 0 00.968-.945v-3.436a.957.957 0 00-.968-.945z" fill="#E7EEF2" />
  <path d="M71.236 40.5H25.441v.931h45.795V40.5z" fill="#BBDEFB" />
  <path d="M71.236 42.595H25.441v.93h45.795v-.93zM71.236 44.69H25.441v.93h45.795v-.93zM71.236 46.785H25.441v.93h45.795v-.93z" fill="#E7E8E9" />
  <path d="M71.236 50.704H25.441v.931h45.795v-.93z" fill="#BBDEFB" />
  <path d="M71.236 52.8H25.441v.93h45.795v-.93zM71.236 54.894H25.441v.931h45.795v-.931zM71.236 56.989H25.441v.93h45.795v-.93z" fill="#E7E8E9" />
  <path d="M71.236 60.792H25.441v.931h45.795v-.93z" fill="#BBDEFB" />
  <path d="M71.236 62.887H25.441v.931h45.795v-.931zM71.236 64.982H25.441v.931h45.795v-.931zM71.236 67.077H25.441v.93h45.795v-.93z" fill="#E7E8E9" />
  <path d="M71.236 70.88H25.441v.931h45.795v-.931z" fill="#BBDEFB" />
  <path d="M71.236 72.975H25.441v.93h45.795v-.93zM71.236 75.07H25.441V76h45.795v-.93zM71.236 77.165H25.441v.93h45.795v-.93z" fill="#E7E8E9" />
  <path d="M141.952 85.456c3.263 9.478 5.681 20.45 7.332 29.486-.592.302-1.193.591-1.798.87a60.49 60.49 0 01-6.13 2.454 58.99 58.99 0 01-4.384 1.312c-14.012 3.642-28.889 2.379-42.046-3.57a62.866 62.866 0 01-1.608-.759 1619.204 1619.204 0 014.942-23.886c2.734-12.704 6.655-19.622 9.894-23.37l.034-.036a19.831 19.831 0 011.994-2.002.388.388 0 01.066-.06c.162-.14.325-.27.477-.396 1.951-1.55 3.278-1.834 3.278-1.834l.119.041h.067a12.72 12.72 0 003.229.778h.215c.707.066 1.418.077 2.127.032h.043a13.817 13.817 0 005.62-1.582 20.647 20.647 0 015.672 2.853c4.932 3.534 14.869 16.49 14.869 16.49l-4.012 3.179z" fill="url(#paint5_linear)" />
  <path d="M160.122 103.145c-.029 1.295-1.236 3.92-3.001 7.104a61.624 61.624 0 01-7.842 4.693c-.592.302-1.193.591-1.798.87a60.49 60.49 0 01-6.13 2.454l4.608-14.334-11.926-12.22 7.914-6.256 4.012-3.17s14.287 15.855 14.163 20.859z" fill="url(#paint6_linear)" />
  <defs>
    <linearGradient id="paint0_linear" x1="121.245" y1="7.453" x2="119.23" y2="126.433" gradientUnits="userSpaceOnUse">
      <stop stop-color="#fff" stop-opacity="0" />
      <stop offset="1" stop-color="#64B5F6" stop-opacity=".6" />
    </linearGradient>
    <linearGradient id="paint1_linear" x1="101.824" y1="63.278" x2="98.415" y2="95.533" gradientUnits="userSpaceOnUse">
      <stop stop-color="#42A5F5" />
      <stop offset="1" stop-color="#1565C0" />
    </linearGradient>
    <linearGradient id="paint2_linear" x1="60.541" y1="97.219" x2="100.101" y2="102.592" gradientUnits="userSpaceOnUse">
      <stop stop-color="#FFE082" />
      <stop offset="1" stop-color="#FFA726" />
    </linearGradient>
    <linearGradient id="paint3_linear" x1="8898.78" y1="2327.97" x2="8901.43" y2="2118.66" gradientUnits="userSpaceOnUse">
      <stop stop-color="#FFE082" />
      <stop offset="1" stop-color="#FFA726" />
    </linearGradient>
    <linearGradient id="paint4_linear" x1="14160.6" y1="3728.4" x2="14909.9" y2="3728.4" gradientUnits="userSpaceOnUse">
      <stop stop-color="#FFE082" />
      <stop offset="1" stop-color="#FFA726" />
    </linearGradient>
    <linearGradient id="paint5_linear" x1="40576.6" y1="13813.8" x2="45975.7" y2="19174.5" gradientUnits="userSpaceOnUse">
      <stop stop-color="#42A5F5" />
      <stop offset="1" stop-color="#1565C0" />
    </linearGradient>
    <linearGradient id="paint6_linear" x1="21739.8" y1="11218.5" x2="21382.1" y2="8911.55" gradientUnits="userSpaceOnUse">
      <stop stop-color="#FFE082" />
      <stop offset="1" stop-color="#FFA726" />
    </linearGradient>
    <filter id="filter0_d" x=".911" y="18.64" width="87.314" height="80.984" filterUnits="userSpaceOnUse" color-interpolation-filters="sRGB">
      <feFlood flood-opacity="0" result="BackgroundImageFix" />
      <feColorMatrix in="SourceAlpha" values="0 0 0 0 0 0 0 0 0 0 0 0 0 0 0 0 0 0 127 0" />
      <feOffset dy="4" />
      <feGaussianBlur stdDeviation="5" />
      <feColorMatrix values="0 0 0 0 0 0 0 0 0 0 0 0 0 0 0 0 0 0 0.15 0" />
      <feBlend in2="BackgroundImageFix" result="effect1_dropShadow" />
      <feBlend in="SourceGraphic" in2="effect1_dropShadow" result="shape" />
    </filter>
  </defs>
</svg>
